images/254572.svg

<?xml version="1.0" encoding="UTF-8"?>
<svg xmlns="http://www.w3.org/2000/svg" xmlns:xlink="http://www.w3.org/1999/xlink" width="300pt" height="300pt" viewBox="0 0 300 300" version="1.1">
<defs>
<g>
<symbol overflow="visible" id="glyph0-0">
<path style="stroke:none;" d="M 0.59375 2.125 L 0.59375 -8.46875 L 6.59375 -8.46875 L 6.59375 2.125 Z M 1.265625 1.453125 L 5.9375 1.453125 L 5.9375 -7.78125 L 1.265625 -7.78125 Z M 1.265625 1.453125 "/>
</symbol>
<symbol overflow="visible" id="glyph0-1">
<path style="stroke:none;" d="M 1.171875 -8.75 L 6.203125 -8.75 L 6.203125 -7.75 L 2.359375 -7.75 L 2.359375 -5.171875 L 5.828125 -5.171875 L 5.828125 -4.171875 L 2.359375 -4.171875 L 2.359375 0 L 1.171875 0 Z M 1.171875 -8.75 "/>
</symbol>
<symbol overflow="visible" id="glyph0-2">
<path style="stroke:none;" d="M 1.171875 -8.75 L 2.765625 -8.75 L 6.65625 -1.4375 L 6.65625 -8.75 L 7.796875 -8.75 L 7.796875 0 L 6.203125 0 L 2.328125 -7.3125 L 2.328125 0 L 1.171875 0 Z M 1.171875 -8.75 "/>
</symbol>
<symbol overflow="visible" id="glyph0-3">
<path style="stroke:none;" d="M 1.171875 -8.75 L 2.359375 -8.75 L 2.359375 -5.15625 L 6.65625 -5.15625 L 6.65625 -8.75 L 7.84375 -8.75 L 7.84375 0 L 6.65625 0 L 6.65625 -4.171875 L 2.359375 -4.171875 L 2.359375 0 L 1.171875 0 Z M 1.171875 -8.75 "/>
</symbol>
</g>
</defs>
<g id="surface26177">
<rect x="0" y="0" width="300" height="300" style="fill:rgb(100%,100%,100%);fill-opacity:1;stroke:none;"/>
<path style="fill:none;stroke-width:1.2;stroke-linecap:butt;stroke-linejoin:miter;stroke:rgb(20%,80%,80%);stroke-opacity:1;stroke-miterlimit:10;" d="M 56.464844 196.484375 L 60.957031 182.574219 "/>
<path style="fill:none;stroke-width:1.2;stroke-linecap:butt;stroke-linejoin:miter;stroke:rgb(0%,0%,0%);stroke-opacity:1;stroke-miterlimit:10;" d="M 60.957031 182.574219 L 65.453125 168.667969 "/>
<path style=" stroke:none;fill-rule:nonzero;fill:rgb(100%,100%,100%);fill-opacity:1;" d="M 49.464844 189.484375 L 56.464844 189.484375 L 56.464844 203.484375 L 49.464844 203.484375 Z M 49.464844 189.484375 "/>
<g style="fill:rgb(20%,80%,80%);fill-opacity:1;">
  <use xlink:href="#glyph0-1" x="49.464844" y="200.623047"/>
</g>
<path style="fill:none;stroke-width:1.2;stroke-linecap:butt;stroke-linejoin:miter;stroke:rgb(0%,0%,0%);stroke-opacity:1;stroke-miterlimit:10;" d="M 65.453125 168.667969 L 45.855469 146.972656 "/>
<path style="fill:none;stroke-width:1.2;stroke-linecap:butt;stroke-linejoin:miter;stroke:rgb(0%,0%,0%);stroke-opacity:1;stroke-miterlimit:10;" d="M 68.597656 161.886719 L 52.921875 144.53125 "/>
<path style="fill:none;stroke-width:1.2;stroke-linecap:butt;stroke-linejoin:miter;stroke:rgb(0%,0%,0%);stroke-opacity:1;stroke-miterlimit:10;" d="M 94.039062 162.542969 L 65.453125 168.667969 "/>
<path style="fill:none;stroke-width:1.2;stroke-linecap:butt;stroke-linejoin:miter;stroke:rgb(0%,0%,0%);stroke-opacity:1;stroke-miterlimit:10;" d="M 45.855469 146.972656 L 54.847656 119.15625 "/>
<path style="fill:none;stroke-width:1.2;stroke-linecap:butt;stroke-linejoin:miter;stroke:rgb(0%,0%,0%);stroke-opacity:1;stroke-miterlimit:10;" d="M 54.847656 119.15625 L 45.046875 108.308594 "/>
<path style="fill:none;stroke-width:1.2;stroke-linecap:butt;stroke-linejoin:miter;stroke:rgb(20%,80%,80%);stroke-opacity:1;stroke-miterlimit:10;" d="M 45.046875 108.308594 L 35.25 97.464844 "/>
<path style="fill:none;stroke-width:1.2;stroke-linecap:butt;stroke-linejoin:miter;stroke:rgb(0%,0%,0%);stroke-opacity:1;stroke-miterlimit:10;" d="M 54.847656 119.15625 L 83.429688 113.03125 "/>
<path style="fill:none;stroke-width:1.2;stroke-linecap:butt;stroke-linejoin:miter;stroke:rgb(0%,0%,0%);stroke-opacity:1;stroke-miterlimit:10;" d="M 59.144531 125.269531 L 82.011719 120.371094 "/>
<path style=" stroke:none;fill-rule:nonzero;fill:rgb(100%,100%,100%);fill-opacity:1;" d="M 28.25 90.464844 L 35.25 90.464844 L 35.25 104.464844 L 28.25 104.464844 Z M 28.25 90.464844 "/>
<g style="fill:rgb(20%,80%,80%);fill-opacity:1;">
  <use xlink:href="#glyph0-1" x="28.25" y="101.603516"/>
</g>
<path style="fill:none;stroke-width:1.2;stroke-linecap:butt;stroke-linejoin:miter;stroke:rgb(0%,0%,0%);stroke-opacity:1;stroke-miterlimit:10;" d="M 83.429688 113.03125 L 103.027344 134.726562 "/>
<path style="fill:none;stroke-width:1.2;stroke-linecap:butt;stroke-linejoin:miter;stroke:rgb(0%,0%,0%);stroke-opacity:1;stroke-miterlimit:10;" d="M 103.027344 134.726562 L 94.039062 162.542969 "/>
<path style="fill:none;stroke-width:1.2;stroke-linecap:butt;stroke-linejoin:miter;stroke:rgb(0%,0%,0%);stroke-opacity:1;stroke-miterlimit:10;" d="M 95.582031 135.394531 L 88.390625 157.648438 "/>
<path style="fill:none;stroke-width:1.2;stroke-linecap:butt;stroke-linejoin:miter;stroke:rgb(0%,0%,0%);stroke-opacity:1;stroke-miterlimit:10;" d="M 94.039062 162.542969 L 103.835938 173.390625 "/>
<path style="fill:none;stroke-width:1.2;stroke-linecap:butt;stroke-linejoin:miter;stroke:rgb(0%,0%,100%);stroke-opacity:1;stroke-miterlimit:10;" d="M 103.835938 173.390625 L 113.632812 184.238281 "/>
<path style="fill:none;stroke-width:1.2;stroke-linecap:butt;stroke-linejoin:miter;stroke:rgb(0%,0%,100%);stroke-opacity:1;stroke-miterlimit:10;" d="M 113.632812 184.238281 L 127.925781 181.175781 "/>
<path style="fill:none;stroke-width:1.2;stroke-linecap:butt;stroke-linejoin:miter;stroke:rgb(0%,0%,0%);stroke-opacity:1;stroke-miterlimit:10;" d="M 127.925781 181.175781 L 142.21875 178.113281 "/>
<path style=" stroke:none;fill-rule:nonzero;fill:rgb(100%,100%,100%);fill-opacity:1;" d="M 104.632812 177.238281 L 122.632812 177.238281 L 122.632812 191.238281 L 104.632812 191.238281 Z M 104.632812 177.238281 "/>
<g style="fill:rgb(0%,0%,100%);fill-opacity:1;">
  <use xlink:href="#glyph0-2" x="104.632812" y="188.376953"/>
  <use xlink:href="#glyph0-3" x="113.609375" y="188.376953"/>
</g>
<path style="fill:none;stroke-width:1.2;stroke-linecap:butt;stroke-linejoin:miter;stroke:rgb(0%,0%,0%);stroke-opacity:1;stroke-miterlimit:10;" d="M 142.21875 178.113281 L 152.015625 188.960938 "/>
<path style="fill:none;stroke-width:1.2;stroke-linecap:butt;stroke-linejoin:miter;stroke:rgb(0%,0%,100%);stroke-opacity:1;stroke-miterlimit:10;" d="M 152.015625 188.960938 L 161.8125 199.804688 "/>
<path style="fill:none;stroke-width:1.2;stroke-linecap:butt;stroke-linejoin:miter;stroke:rgb(0%,0%,0%);stroke-opacity:1;stroke-miterlimit:10;" d="M 149.28125 175.671875 L 157.121094 184.347656 "/>
<path style="fill:none;stroke-width:1.2;stroke-linecap:butt;stroke-linejoin:miter;stroke:rgb(0%,0%,100%);stroke-opacity:1;stroke-miterlimit:10;" d="M 157.121094 184.347656 L 164.957031 193.027344 "/>
<path style="fill:none;stroke-width:1.2;stroke-linecap:butt;stroke-linejoin:miter;stroke:rgb(0%,0%,0%);stroke-opacity:1;stroke-miterlimit:10;" d="M 151.207031 150.296875 L 142.21875 178.113281 "/>
<path style="fill:none;stroke-width:1.2;stroke-linecap:butt;stroke-linejoin:miter;stroke:rgb(0%,0%,100%);stroke-opacity:1;stroke-miterlimit:10;" d="M 161.8125 199.804688 L 176.105469 196.746094 "/>
<path style="fill:none;stroke-width:1.2;stroke-linecap:butt;stroke-linejoin:miter;stroke:rgb(0%,0%,0%);stroke-opacity:1;stroke-miterlimit:10;" d="M 176.105469 196.746094 L 190.398438 193.683594 "/>
<path style=" stroke:none;fill-rule:nonzero;fill:rgb(100%,100%,100%);fill-opacity:1;" d="M 157.8125 192.804688 L 166.8125 192.804688 L 166.8125 206.804688 L 157.8125 206.804688 Z M 157.8125 192.804688 "/>
<g style="fill:rgb(0%,0%,100%);fill-opacity:1;">
  <use xlink:href="#glyph0-2" x="157.8125" y="203.943359"/>
</g>
<path style="fill:none;stroke-width:1.2;stroke-linecap:butt;stroke-linejoin:miter;stroke:rgb(0%,0%,0%);stroke-opacity:1;stroke-miterlimit:10;" d="M 190.398438 193.683594 L 199.386719 165.867188 "/>
<path style="fill:none;stroke-width:1.2;stroke-linecap:butt;stroke-linejoin:miter;stroke:rgb(0%,0%,0%);stroke-opacity:1;stroke-miterlimit:10;" d="M 197.84375 193.015625 L 205.035156 170.761719 "/>
<path style="fill:none;stroke-width:1.2;stroke-linecap:butt;stroke-linejoin:miter;stroke:rgb(0%,0%,0%);stroke-opacity:1;stroke-miterlimit:10;" d="M 209.996094 215.375 L 190.398438 193.683594 "/>
<path style="fill:none;stroke-width:1.2;stroke-linecap:butt;stroke-linejoin:miter;stroke:rgb(0%,0%,0%);stroke-opacity:1;stroke-miterlimit:10;" d="M 199.386719 165.867188 L 179.792969 144.171875 "/>
<path style="fill:none;stroke-width:1.2;stroke-linecap:butt;stroke-linejoin:miter;stroke:rgb(0%,0%,0%);stroke-opacity:1;stroke-miterlimit:10;" d="M 199.386719 165.867188 L 227.972656 159.742188 "/>
<path style="fill:none;stroke-width:1.2;stroke-linecap:butt;stroke-linejoin:miter;stroke:rgb(0%,0%,0%);stroke-opacity:1;stroke-miterlimit:10;" d="M 179.792969 144.171875 L 151.207031 150.296875 "/>
<path style="fill:none;stroke-width:1.2;stroke-linecap:butt;stroke-linejoin:miter;stroke:rgb(0%,0%,0%);stroke-opacity:1;stroke-miterlimit:10;" d="M 178.375 151.511719 L 155.507812 156.410156 "/>
<path style="fill:none;stroke-width:1.2;stroke-linecap:butt;stroke-linejoin:miter;stroke:rgb(0%,0%,0%);stroke-opacity:1;stroke-miterlimit:10;" d="M 227.972656 159.742188 L 237.769531 170.589844 "/>
<path style="fill:none;stroke-width:1.2;stroke-linecap:butt;stroke-linejoin:miter;stroke:rgb(0%,0%,100%);stroke-opacity:1;stroke-miterlimit:10;" d="M 237.769531 170.589844 L 247.570312 181.433594 "/>
<path style="fill:none;stroke-width:1.2;stroke-linecap:butt;stroke-linejoin:miter;stroke:rgb(0%,0%,0%);stroke-opacity:1;stroke-miterlimit:10;" d="M 224.828125 166.523438 L 232.667969 175.199219 "/>
<path style="fill:none;stroke-width:1.2;stroke-linecap:butt;stroke-linejoin:miter;stroke:rgb(0%,0%,100%);stroke-opacity:1;stroke-miterlimit:10;" d="M 232.667969 175.199219 L 240.503906 183.875 "/>
<path style="fill:none;stroke-width:1.2;stroke-linecap:butt;stroke-linejoin:miter;stroke:rgb(0%,0%,0%);stroke-opacity:1;stroke-miterlimit:10;" d="M 227.972656 159.742188 L 236.960938 131.925781 "/>
<path style="fill:none;stroke-width:1.2;stroke-linecap:butt;stroke-linejoin:miter;stroke:rgb(0%,0%,100%);stroke-opacity:1;stroke-miterlimit:10;" d="M 247.570312 181.433594 L 238.578125 209.253906 "/>
<path style=" stroke:none;fill-rule:nonzero;fill:rgb(100%,100%,100%);fill-opacity:1;" d="M 243.570312 174.433594 L 252.570312 174.433594 L 252.570312 188.433594 L 243.570312 188.433594 Z M 243.570312 174.433594 "/>
<g style="fill:rgb(0%,0%,100%);fill-opacity:1;">
  <use xlink:href="#glyph0-2" x="243.570312" y="185.572266"/>
</g>
<path style="fill:none;stroke-width:1.2;stroke-linecap:butt;stroke-linejoin:miter;stroke:rgb(0%,0%,100%);stroke-opacity:1;stroke-miterlimit:10;" d="M 238.578125 209.253906 L 224.285156 212.3125 "/>
<path style="fill:none;stroke-width:1.2;stroke-linecap:butt;stroke-linejoin:miter;stroke:rgb(0%,0%,0%);stroke-opacity:1;stroke-miterlimit:10;" d="M 224.285156 212.3125 L 209.996094 215.375 "/>
<path style="fill:none;stroke-width:1.2;stroke-linecap:butt;stroke-linejoin:miter;stroke:rgb(0%,0%,100%);stroke-opacity:1;stroke-miterlimit:10;" d="M 234.28125 203.140625 L 222.847656 205.589844 "/>
<path style="fill:none;stroke-width:1.2;stroke-linecap:butt;stroke-linejoin:miter;stroke:rgb(0%,0%,0%);stroke-opacity:1;stroke-miterlimit:10;" d="M 222.847656 205.589844 L 211.414062 208.039062 "/>
<path style=" stroke:none;fill-rule:nonzero;fill:rgb(100%,100%,100%);fill-opacity:1;" d="M 234.578125 202.253906 L 243.578125 202.253906 L 243.578125 216.253906 L 234.578125 216.253906 Z M 234.578125 202.253906 "/>
<g style="fill:rgb(0%,0%,100%);fill-opacity:1;">
  <use xlink:href="#glyph0-2" x="234.578125" y="213.392578"/>
</g>
<path style="fill:none;stroke-width:1.2;stroke-linecap:butt;stroke-linejoin:miter;stroke:rgb(0%,0%,0%);stroke-opacity:1;stroke-miterlimit:10;" d="M 236.960938 131.925781 L 219.742188 108.300781 "/>
<path style="fill:none;stroke-width:1.2;stroke-linecap:butt;stroke-linejoin:miter;stroke:rgb(0%,0%,0%);stroke-opacity:1;stroke-miterlimit:10;" d="M 264.75 122.847656 L 236.960938 131.925781 "/>
<path style="fill:none;stroke-width:1.2;stroke-linecap:butt;stroke-linejoin:miter;stroke:rgb(0%,0%,0%);stroke-opacity:1;stroke-miterlimit:10;" d="M 259.835938 117.214844 L 237.605469 124.476562 "/>
<path style="fill:none;stroke-width:1.2;stroke-linecap:butt;stroke-linejoin:miter;stroke:rgb(0%,0%,0%);stroke-opacity:1;stroke-miterlimit:10;" d="M 219.742188 108.300781 L 228.3125 96.464844 "/>
<path style="fill:none;stroke-width:1.2;stroke-linecap:butt;stroke-linejoin:miter;stroke:rgb(0%,0%,100%);stroke-opacity:1;stroke-miterlimit:10;" d="M 228.3125 96.464844 L 236.886719 84.625 "/>
<path style="fill:none;stroke-width:1.2;stroke-linecap:butt;stroke-linejoin:miter;stroke:rgb(0%,0%,0%);stroke-opacity:1;stroke-miterlimit:10;" d="M 227.027344 109.96875 L 233.882812 100.496094 "/>
<path style="fill:none;stroke-width:1.2;stroke-linecap:butt;stroke-linejoin:miter;stroke:rgb(0%,0%,100%);stroke-opacity:1;stroke-miterlimit:10;" d="M 233.882812 100.496094 L 240.742188 91.027344 "/>
<path style="fill:none;stroke-width:1.2;stroke-linecap:butt;stroke-linejoin:miter;stroke:rgb(0%,0%,100%);stroke-opacity:1;stroke-miterlimit:10;" d="M 236.886719 84.625 L 264.703125 93.613281 "/>
<path style=" stroke:none;fill-rule:nonzero;fill:rgb(100%,100%,100%);fill-opacity:1;" d="M 232.886719 77.625 L 241.886719 77.625 L 241.886719 91.625 L 232.886719 91.625 Z M 232.886719 77.625 "/>
<g style="fill:rgb(0%,0%,100%);fill-opacity:1;">
  <use xlink:href="#glyph0-2" x="232.886719" y="88.763672"/>
</g>
<path style="fill:none;stroke-width:1.2;stroke-linecap:butt;stroke-linejoin:miter;stroke:rgb(0%,0%,100%);stroke-opacity:1;stroke-miterlimit:10;" d="M 264.703125 93.613281 L 264.726562 108.230469 "/>
<path style="fill:none;stroke-width:1.2;stroke-linecap:butt;stroke-linejoin:miter;stroke:rgb(0%,0%,0%);stroke-opacity:1;stroke-miterlimit:10;" d="M 264.726562 108.230469 L 264.75 122.847656 "/>
<path style=" stroke:none;fill-rule:nonzero;fill:rgb(100%,100%,100%);fill-opacity:1;" d="M 255.703125 86.613281 L 273.703125 86.613281 L 273.703125 100.613281 L 255.703125 100.613281 Z M 255.703125 86.613281 "/>
<g style="fill:rgb(0%,0%,100%);fill-opacity:1;">
  <use xlink:href="#glyph0-2" x="255.703125" y="97.751953"/>
  <use xlink:href="#glyph0-3" x="264.679688" y="97.751953"/>
</g>
</g>
</svg>

<svg xmlns="http://www.w3.org/2000/svg" xmlns:xlink="http://www.w3.org/1999/xlink" width="300pt" height="300pt" viewBox="0 0 300 300"><defs><symbol overflow="visible"><path d="M.594 2.125V-8.47h6V2.126zm.672-.672h4.671V-7.78h-4.67zm0 0"/></symbol><symbol overflow="visible" id="a"><path d="M1.172-8.75h5.03v1H2.36v2.578h3.468v1h-3.47V0H1.173zm0 0"/></symbol><symbol overflow="visible" id="b"><path d="M1.172-8.75h1.594l3.89 7.313V-8.75h1.14V0H6.204L2.328-7.313V0H1.172zm0 0"/></symbol><symbol overflow="visible" id="c"><path d="M1.172-8.75H2.36v3.594h4.296V-8.75h1.188V0H6.656v-4.172H2.36V0H1.17zm0 0"/></symbol></defs><g><path fill="#fff" d="M0 0h300v300H0z"/><path d="M56.465 196.484l4.492-13.91" stroke-width="1.2" stroke="#3cc" stroke-miterlimit="10" fill="none"/><path d="M60.957 182.574l4.496-13.906" stroke-width="1.2" stroke="#000" stroke-miterlimit="10" fill="none"/><path d="M49.465 189.484h7v14h-7zm0 0" fill="#fff"/><use xlink:href="#a" x="49.465" y="200.623" fill="#3cc"/><path d="M65.453 168.668l-19.598-21.695M68.598 161.887L52.922 144.53M94.04 162.543l-28.587 6.125M45.855 146.973l8.993-27.817M54.848 119.156l-9.8-10.847" stroke-width="1.2" stroke="#000" stroke-miterlimit="10" fill="none"/><path d="M45.047 108.31L35.25 97.464" stroke-width="1.2" stroke="#3cc" stroke-miterlimit="10" fill="none"/><path d="M54.848 119.156l28.582-6.125M59.145 125.27l22.867-4.9" stroke-width="1.2" stroke="#000" stroke-miterlimit="10" fill="none"/><path d="M28.25 90.465h7v14h-7zm0 0" fill="#fff"/><use xlink:href="#a" x="28.25" y="101.604" fill="#3cc"/><path d="M83.43 113.03l19.597 21.697M103.027 134.727l-8.988 27.816M95.582 135.395l-7.19 22.253M94.04 162.543l9.796 10.848" stroke-width="1.2" stroke="#000" stroke-miterlimit="10" fill="none"/><path d="M103.836 173.39l9.797 10.848M113.633 184.238l14.293-3.062" stroke-width="1.2" stroke="#00f" stroke-miterlimit="10" fill="none"/><path d="M127.926 181.176l14.293-3.063" stroke-width="1.2" stroke="#000" stroke-miterlimit="10" fill="none"/><path d="M104.633 177.238h18v14h-18zm0 0" fill="#fff"/><g fill="#00f"><use xlink:href="#b" x="104.633" y="188.377"/><use xlink:href="#c" x="113.609" y="188.377"/></g><path d="M142.22 178.113l9.796 10.848" stroke-width="1.2" stroke="#000" stroke-miterlimit="10" fill="none"/><path d="M152.016 188.96l9.797 10.845" stroke-width="1.2" stroke="#00f" stroke-miterlimit="10" fill="none"/><path d="M149.28 175.672l7.84 8.676" stroke-width="1.2" stroke="#000" stroke-miterlimit="10" fill="none"/><path d="M157.12 184.348l7.837 8.68" stroke-width="1.2" stroke="#00f" stroke-miterlimit="10" fill="none"/><path d="M151.207 150.297l-8.988 27.816" stroke-width="1.2" stroke="#000" stroke-miterlimit="10" fill="none"/><path d="M161.813 199.805l14.292-3.06" stroke-width="1.2" stroke="#00f" stroke-miterlimit="10" fill="none"/><path d="M176.105 196.746l14.293-3.062" stroke-width="1.2" stroke="#000" stroke-miterlimit="10" fill="none"/><path d="M157.813 192.805h9v14h-9zm0 0" fill="#fff"/><use xlink:href="#b" x="157.813" y="203.943" fill="#00f"/><path d="M190.398 193.684l8.99-27.817M197.844 193.016l7.19-22.254M209.996 215.375l-19.598-21.69M199.387 165.867l-19.594-21.695M199.387 165.867l28.586-6.125M179.793 144.172l-28.586 6.125M178.375 151.512l-22.867 4.898M227.973 159.742l9.797 10.848" stroke-width="1.2" stroke="#000" stroke-miterlimit="10" fill="none"/><path d="M237.77 170.59l9.8 10.844" stroke-width="1.2" stroke="#00f" stroke-miterlimit="10" fill="none"/><path d="M224.828 166.523l7.84 8.676" stroke-width="1.2" stroke="#000" stroke-miterlimit="10" fill="none"/><path d="M232.668 175.2l7.836 8.675" stroke-width="1.2" stroke="#00f" stroke-miterlimit="10" fill="none"/><path d="M227.973 159.742l8.988-27.816" stroke-width="1.2" stroke="#000" stroke-miterlimit="10" fill="none"/><path d="M247.57 181.434l-8.992 27.82" stroke-width="1.2" stroke="#00f" stroke-miterlimit="10" fill="none"/><path d="M243.57 174.434h9v14h-9zm0 0" fill="#fff"/><use xlink:href="#b" x="243.57" y="185.572" fill="#00f"/><path d="M238.578 209.254l-14.293 3.06" stroke-width="1.2" stroke="#00f" stroke-miterlimit="10" fill="none"/><path d="M224.285 212.313l-14.29 3.062" stroke-width="1.2" stroke="#000" stroke-miterlimit="10" fill="none"/><path d="M234.28 203.14l-11.432 2.45" stroke-width="1.2" stroke="#00f" stroke-miterlimit="10" fill="none"/><path d="M222.848 205.59l-11.434 2.45" stroke-width="1.2" stroke="#000" stroke-miterlimit="10" fill="none"/><path d="M234.578 202.254h9v14h-9zm0 0" fill="#fff"/><use xlink:href="#b" x="234.578" y="213.393" fill="#00f"/><path d="M236.96 131.926L219.743 108.3M264.75 122.848l-27.79 9.078M259.836 117.215l-22.23 7.262M219.742 108.3l8.57-11.835" stroke-width="1.2" stroke="#000" stroke-miterlimit="10" fill="none"/><path d="M228.313 96.465l8.574-11.84" stroke-width="1.2" stroke="#00f" stroke-miterlimit="10" fill="none"/><path d="M227.027 109.97l6.856-9.474" stroke-width="1.2" stroke="#000" stroke-miterlimit="10" fill="none"/><path d="M233.883 100.496l6.86-9.47M236.887 84.625l27.816 8.988" stroke-width="1.2" stroke="#00f" stroke-miterlimit="10" fill="none"/><path d="M232.887 77.625h9v14h-9zm0 0" fill="#fff"/><use xlink:href="#b" x="232.887" y="88.764" fill="#00f"/><path d="M264.703 93.613l.024 14.617" stroke-width="1.2" stroke="#00f" stroke-miterlimit="10" fill="none"/><path d="M264.727 108.23l.023 14.618" stroke-width="1.2" stroke="#000" stroke-miterlimit="10" fill="none"/><path d="M255.703 86.613h18v14h-18zm0 0" fill="#fff"/><g fill="#00f"><use xlink:href="#b" x="255.703" y="97.752"/><use xlink:href="#c" x="264.68" y="97.752"/></g></g></svg>
